src/images/icons/folder.svg

<svg width="486" height="345" viewBox="0 0 486 345" fill="none" xmlns="http://www.w3.org/2000/svg">
<path d="M96.2001 49.7499H17.1492C8.06565 49.7499 -1.01785 57.6059 0.209654 70.3719L38.5077 315.626C38.5077 315.626 83.9251 134.938 92.7631 91.4849C95.4636 78.4734 107.739 74.2999 116.822 74.2999H243.5C243.5 74.2999 226.315 23.2359 224.597 17.5894C221.651 6.7874 216.25 0.649902 205.448 0.649902H124.187C115.349 0.649902 107.002 6.29641 104.547 16.3619C102.338 26.1819 96.2001 49.7499 96.2001 49.7499ZM216.004 49.7499H117.804C117.804 49.7499 128.115 25.1999 139.163 25.1999H191.454C203.238 25.1999 216.004 49.7499 216.004 49.7499ZM63.5487 325.937C55.9382 337.476 44.8907 344.35 32.6157 344.35H418.787C432.044 344.35 441.373 336.739 444.074 323.973C454.876 270.209 485.318 116.771 485.318 116.771C487.036 104.496 477.953 98.8499 470.097 98.8499H390.8V62.7614C390.8 58.8334 384.417 49.7499 374.597 49.7499H282.289C269.523 49.7499 260.931 63.9889 260.931 63.9889L243.5 98.8499H135.235C127.379 98.8499 119.768 103.514 118.295 111.125C118.295 111.125 79.2607 275.61 76.0692 291.076C74.3507 300.16 70.6682 315.381 63.5487 325.937V325.937ZM375.579 98.8499H268.05C268.05 98.8499 282.289 74.2999 295.792 74.2999H352.011C369.442 74.2999 375.579 98.8499 375.579 98.8499V98.8499Z" fill="black"/>
</svg>

<?xml version="1.0" encoding="utf-8"?>
<!-- Generator: Adobe Illustrator 25.0.0, SVG Export Plug-In . SVG Version: 6.00 Build 0)  -->
<svg version="1.1" id="Layer_1" xmlns="http://www.w3.org/2000/svg" xmlns:xlink="http://www.w3.org/1999/xlink" x="0px" y="0px"
	 viewBox="0 0 486 345" style="enable-background:new 0 0 486 345;" xml:space="preserve">
<style type="text/css">
	.st0{fill:#AAA5A5;}
</style>
<path class="st0" d="M96.2,49.7H17.1C8.1,49.7-1,57.6,0.2,70.4l38.3,245.3c0,0,45.4-180.7,54.3-224.1c2.7-13,15-17.2,24.1-17.2
	h126.7c0,0-17.2-51.1-18.9-56.7c-2.9-10.8-8.3-16.9-19.1-16.9h-81.3c-8.8,0-17.2,5.6-19.6,15.7C102.3,26.2,96.2,49.7,96.2,49.7z
	 M216,49.7h-98.2c0,0,10.3-24.6,21.4-24.6h52.3C203.2,25.2,216,49.7,216,49.7z M63.5,325.9c-7.6,11.5-18.7,18.4-30.9,18.4h386.2
	c13.3,0,22.6-7.6,25.3-20.4c10.8-53.8,41.2-207.2,41.2-207.2c1.7-12.3-7.4-17.9-15.2-17.9h-79.3V62.8c0-3.9-6.4-13-16.2-13h-92.3
	c-12.8,0-21.4,14.2-21.4,14.2l-17.4,34.9H135.2c-7.9,0-15.5,4.7-16.9,12.3c0,0-39,164.5-42.2,180C74.4,300.2,70.7,315.4,63.5,325.9
	L63.5,325.9z M375.6,98.8H268c0,0,14.2-24.6,27.7-24.6H352C369.4,74.3,375.6,98.8,375.6,98.8L375.6,98.8z"/>
</svg>
